X: 37656
T: Snowden's
R: polka
M: 2/4
K: Aminor
"F" f2 "Am" e2|"Dm" d^c/e/ "Am" d/d/=c/A/|"F" z/ A/f "Am" e2|"Dm" (3 d/d/d/ ^c/e/ "Am" d/d/=c/A/|
"F" (3 A/A/A/ f/A/ "Am" e2|"Dm" d^c/e/ "Am" d/d/=c/A/|"F" z/ A/f/A/ "Am" e2|"Dm" d^c/e/ "Am" d/d/=c/A/
"Am" A/c/e/^f/ "C" gf/g/|"Am" A/c/e/^f/ "C" gf/g/|"Am" A/c/e/^g/ ag/a/|"Am" A/c/e/^g/ ag/a/|
"Am" A/c/e/^f/ "C" g/g/f/g/|"Am" A/c/e/^f/ "C" g/g/f/g/|"Am" A/c/e/^g/ a/a/g/a/|"Am" A/c/e/^g/ a/a/g/a/||

